X:1
T:Poor Lonesome Cowboy
M:4/4
L:1/4
K:F
F/2-G/2| A2 A3/2 A/2| G F zF/2-A/2| c2 c3/2 c/2| B A z|F/2-G/2| A2 A3/2 A/2|\
 G F zF/2-F/2| A G F E| F3||
